X:2014
T:Bonaparte Crossing The Rhine
T:Boney Crossing the Alps
T:Battle Of Waterloo, The
R:Hornpipe
C:Trad.
O:Scotland
M:4/4
L:1/8
Q:1/4=120
K:Ador
EG|"Am"A2 AB AGE2|"C"cdec d2 eg|"Am"aged cded|"C"cAGE G2 cB|
"Am"A2 AB AGE2|"C"cdec d2 eg|"Am"aged cAGE|"Am"A2 A2 A2:|
|:eg|"Am"aged cdeg|"Am"agec d2 eg|"Am"aged cded|"C"cAGE G2 EG|
"Am"A2 AB AGEG|"C"cdec d2 eg|"Am"aged cABG|"Am"A2 (3cBG A2:|

